svgs/duotone/arrow-up-square-triangle.svg

<svg xmlns="http://www.w3.org/2000/svg" viewBox="0 0 512 512"><!-- Font Awesome Pro 6.0.0-alpha2 by @fontawesome - https://fontawesome.com License - https://fontawesome.com/license (Commercial License) --><defs><style>.fa-secondary{opacity:.4}</style></defs><path d="M319.993 224H447.995C465.669 224 479.995 209.672 479.995 192V64C479.995 46.328 465.669 32 447.995 32H319.993C302.319 32 287.993 46.328 287.993 64V192C287.993 209.672 302.319 224 319.993 224ZM492.12 438.875L408.993 301.75C397.868 283.375 370.243 283.375 359.118 301.75L275.868 438.875C264.868 457.125 278.618 480 300.868 480H467.118C489.37 480 503.12 457.125 492.12 438.875Z" class="fa-secondary"/><path d="M239.591 138.039C251.527 151.086 250.652 171.352 237.623 183.305C224.031 195.766 203.826 193.785 192.404 181.332L160 145.938V447.969C160 465.672 145.671 480 128 480S96 465.672 96 447.969V145.938L63.595 181.332C51.642 194.344 31.392 195.25 18.377 183.305C5.347 171.352 4.472 151.086 16.408 138.039L104.406 41.945C116.531 28.684 139.468 28.684 151.593 41.945L239.591 138.039Z" class="fa-primary"/></svg>

<svg xmlns="http://www.w3.org/2000/svg" viewBox="0 0 512 512"><!--! Font Awesome Pro 6.0.0-alpha3 by @fontawesome - https://fontawesome.com License - https://fontawesome.com/license (Commercial License) --><defs><style>.fa-secondary{opacity:.4}</style></defs><path class="fa-primary" d="M239.6 138c11.94 13.05 11.06 33.31-1.969 45.27C224 195.8 203.8 193.8 192.4 181.3L160 145.9v302C160 465.7 145.7 480 128 480s-32-14.33-32-32.03V145.9L63.6 181.3C51.64 194.3 31.39 195.3 18.38 183.3C5.348 171.4 4.473 151.1 16.41 138l87.1-96.09c12.12-13.26 35.06-13.26 47.19 0L239.6 138z"/><path class="fa-secondary" d="M320 224h128c17.67 0 32-14.33 32-32V64c0-17.67-14.33-32-32-32h-128c-17.67 0-31.1 14.33-31.1 32v128C288 209.7 302.3 224 320 224zM492.1 438.9l-83.13-137.1c-11.12-18.38-38.75-18.38-49.88 0l-83.25 137.1c-11 18.25 2.75 41.13 25 41.13h166.3C489.4 480 503.1 457.1 492.1 438.9z"/></svg>
